; generated by PrusaSlicer 2.6.0-alpha0 on 2022-12-06 at 13:05:11 UTC


;
;
; 

; external perimeters extrusion width = 0.45mm
; perimeters extrusion width = 0.45mm
; infill extrusion width = 0.45mm
; solid infill extrusion width = 0.45mm
; top infill extrusion width = 0.40mm
; first layer extrusion width = 0.42mm

M73 P0 R57
M73 Q0 S58
M201 X1000 Y1000 Z200 E5000 ; sets maximum accelerations, mm/sec^2
M203 X200 Y200 Z12 E120 ; sets maximum feedrates, mm / sec
M204 P1250 R1250 T1250 ; sets acceleration (P, T) and retract acceleration (R), mm/sec^2
M205 X8.00 Y8.00 Z0.40 E4.50 ; sets the jerk limits, mm/sec
M205 S0 T0 ; sets the minimum extruding and travel feed rate, mm/sec
M107
;TYPE:Custom
M862.3 P "MK3" ; printer model check
M862.1 P0.4 ; nozzle diameter check
M115 U3.11.0 ; tell printer latest fw version
G90 ; use absolute coordinates
M83 ; extruder relative mode
M104 S215 ; set extruder temp
M140 S60 ; set bed temp
M190 S60 ; wait for bed temp
M109 S215 ; wait for extruder temp
G28 W ; home all without mesh bed level
G80 ; mesh bed leveling

G1 Z0.2 F720
G1 Y-3 F1000 ; go outside print area
G92 E0
G1 X60 E9 F1000 ; intro line
G1 X100 E12.5 F1000 ; intro line

G92 E0
M221 S95

; Don't change E values below. Excessive value can damage the printer.
M907 E430 ; set extruder motor current
G21 ; set units to millimeters
G90 ; use absolute coordinates
M83 ; use relative distances for extrusion
M900 K0.05 ; Filament gcode LA 1.5
M900 K30 ; Filament gcode LA 1.0
M107
;LAYER_CHANGE
;Z:0.2
;HEIGHT:0.2
;BEFORE_LAYER_CHANGE
G92 E0.0
;0.2


M73 Q0 S57
G1 E-.8 F2100
G1 Z.4 F720
;AFTER_LAYER_CHANGE
;0.2
G1 X84.407 Y84.469 F10800
G1 Z.2 F720
G1 E.8 F2100
M204 S800
;TYPE:Skirt/Brim
;WIDTH:0.42
G1 F1200
G1 X86.088 Y83.773 E.05705
G1 X163.912 Y83.773 E2.44012
G1 X165.593 Y84.469 E.05705
G1 X168.581 Y87.457 E.13249
G1 X169.277 Y89.138 E.05705
G1 X169.277 Y120.862 E.99468
G1 X168.581 Y122.543 E.05705
G1 X165.593 Y125.531 E.13249
G1 X163.912 Y126.227 E.05705
G1 X86.088 Y126.227 E2.44012
G1 X84.407 Y125.531 E.05705
G1 X81.419 Y122.543 E.13249
G1 X80.723 Y120.862 E.05705
G1 X80.723 Y89.138 E.99468
G1 X81.419 Y87.457 E.05705
G1 X84.364 Y84.512 E.13059
M204 S1000
;WIPE_START
G1 F8640
G1 X86.088 Y83.773 E-.43311
G1 X87.677 Y83.773 E-.36689
;WIPE_END
G1 Z.6 F720
G1 X85.696 Y87.143 F10800
G1 Z.2 F720
G1 E.8 F2100
M204 S800
G1 F1200
G1 X86.47 Y86.751 E.0272
G1 X87.692 Y86.448 E.03948
G1 X103.225 Y86.444 E.48703
G1 X104.247 Y86.646 E.03266
G1 X105.188 Y87.049 E.0321
G1 X106.312 Y87.946 E.04509
G1 X107.205 Y89.284 E.05044
G1 X107.613 Y90.829 E.0501
G1 X107.613 Y119.194 E.88936
G1 X107.107 Y120.931 E.05673
G1 X106.486 Y121.849 E.03475
G1 X105.45 Y122.791 E.0439
G1 X104.53 Y123.249 E.03222
G1 X103.218 Y123.563 E.0423
G1 X87.756 Y123.563 E.4848
G1 X86.019 Y123.057 E.05673
G1 X85.101 Y122.436 E.03475
G1 X84.159 Y121.4 E.0439
G1 X83.701 Y120.48 E.03222
G1 X83.387 Y119.168 E.0423
G1 X83.387 Y90.806 E.88927
G1 X83.893 Y89.069 E.05673
G1 X84.514 Y88.151 E.03475
G1 X85.508 Y87.238 E.04232
G1 X85.643 Y87.17 E.00474
M204 S1000
G1 X85.809 Y87.501 F10800
M204 S800
G1 F1200
G1 X86.581 Y87.112 E.0271
G1 X87.761 Y86.819 E.03812
G1 X103.171 Y86.817 E.48317
G1 X104.117 Y87 E.03021
G1 X105.015 Y87.386 E.03065
G1 X106.053 Y88.221 E.04177
G1 X106.849 Y89.412 E.04492
G1 X107.236 Y90.854 E.04681
G1 X107.236 Y119.167 E.88773
G1 X106.778 Y120.746 E.05155
G1 X106.214 Y121.587 E.03175
G1 X105.256 Y122.466 E.04077
G1 X104.419 Y122.888 E.02939
G1 X103.195 Y123.186 E.0395
G1 X87.783 Y123.186 E.48323
G1 X86.204 Y122.728 E.05155
G1 X85.363 Y122.164 E.03175
G1 X84.484 Y121.206 E.04077
G1 X84.062 Y120.369 E.02939
G1 X83.764 Y119.145 E.0395
G1 X83.764 Y90.833 E.8877
G1 X84.222 Y89.254 E.05155
G1 X84.786 Y88.413 E.03175
G1 X85.756 Y87.528 E.04117
M204 S1000
G1 X85.939 Y87.857 F10800
M204 S800
G1 F1200
G1 X86.694 Y87.473 E.02656
G1 X87.829 Y87.191 E.03667
G1 X103.153 Y87.194 E.48047
G1 X104.024 Y87.366 E.02784
G1 X104.84 Y87.721 E.0279
G1 X105.793 Y88.495 E.03849
G1 X106.517 Y89.593 E.04124
G1 X106.859 Y90.878 E.04169
G1 X106.859 Y119.139 E.8861
G1 X106.424 Y120.61 E.0481
G1 X105.941 Y121.326 E.02708
G1 X105.061 Y122.143 E.03765
G1 X104.306 Y122.527 E.02656
G1 X103.171 Y122.809 E.03667
G1 X87.811 Y122.809 E.4816
G1 X86.34 Y122.374 E.0481
M73 P1 R57
M73 Q1 S57
G1 X85.624 Y121.891 E.02708
G1 X84.807 Y121.011 E.03765
G1 X84.423 Y120.256 E.02656
G1 X84.141 Y119.121 E.03667
G1 X84.141 Y90.861 E.88607
G1 X84.576 Y89.39 E.0481
G1 X85.059 Y88.674 E.02708
G1 X85.895 Y87.898 E.03576
M204 S1000
G1 X86.136 Y88.18 F10800
M204 S800
G1 F1200
G1 X86.808 Y87.833 E.02371
G1 X87.853 Y87.568 E.0338
G1 X103.133 Y87.571 E.47909
G1 X103.929 Y87.732 E.02546
M73 P1 R56
G1 X104.664 Y88.055 E.02517
G1 X105.53 Y88.767 E.03515
G1 X106.185 Y89.773 E.03764
G1 X106.482 Y90.902 E.0366
G1 X106.482 Y119.111 E.88447
G1 X106.072 Y120.473 E.0446
G1 X105.668 Y121.065 E.02247
G1 X104.864 Y121.82 E.03458
G1 X104.192 Y122.167 E.02371
G1 X103.148 Y122.432 E.03377
G1 X87.839 Y122.432 E.48
G1 X86.477 Y122.022 E.0446
G1 X85.885 Y121.618 E.02247
G1 X85.13 Y120.814 E.03458
G1 X84.783 Y120.142 E.02371
G1 X84.518 Y119.098 E.03377
G1 X84.518 Y90.889 E.88447
G1 X84.928 Y89.527 E.0446
G1 X85.332 Y88.935 E.02247
G1 X86.092 Y88.221 E.0327
M204 S1000
G1 X86.335 Y88.501 F10800
M204 S800
G1 F1200
G1 X86.925 Y88.192 E.02088
G1 X87.877 Y87.945 E.03084
G1 X103.115 Y87.948 E.47778
G1 X103.796 Y88.085 E.02178
G1 X104.487 Y88.389 E.02367
G1 X105.267 Y89.038 E.03181
G1 X105.829 Y89.9 E.03226
G1 X106.105 Y90.928 E.03337
G1 X106.105 Y119.082 E.88275
G1 X105.721 Y120.334 E.04106
G1 X105.395 Y120.805 E.01796
G1 X104.665 Y121.499 E.03158
G1 X104.075 Y121.808 E.02088
G1 X103.123 Y122.055 E.03084
G1 X87.868 Y122.055 E.47831
G1 X86.616 Y121.671 E.04106
G1 X86.145 Y121.345 E.01796
G1 X85.451 Y120.615 E.03158
G1 X85.142 Y120.025 E.02088
G1 X84.895 Y119.073 E.03084
G1 X84.895 Y90.918 E.88278
G1 X85.279 Y89.666 E.04106
G1 X85.605 Y89.195 E.01796
G1 X86.292 Y88.542 E.02972
M204 S1000
G1 X86.537 Y88.821 F10800
M204 S800
G1 F1200
G1 X87.044 Y88.55 E.01803
G1 X87.902 Y88.322 E.02784
G1 X103.095 Y88.326 E.47637
G1 X103.699 Y88.45 E.01933
G1 X104.308 Y88.722 E.02091
G1 X105.001 Y89.307 E.02844
G1 X105.495 Y90.078 E.02871
G1 X105.728 Y90.952 E.02836
G1 X105.728 Y119.053 E.88109
G1 X105.37 Y120.191 E.03741
G1 X105.12 Y120.546 E.01361
G1 X104.463 Y121.179 E.02861
G1 X103.956 Y121.45 E.01803
G1 X103.098 Y121.678 E.02784
G1 X87.897 Y121.678 E.47662
G1 X86.759 Y121.32 E.03741
G1 X86.404 Y121.07 E.01361
G1 X85.771 Y120.413 E.02861
G1 X85.5 Y119.906 E.01803
G1 X85.272 Y119.048 E.02784
G1 X85.272 Y90.947 E.88109
G1 X85.63 Y89.809 E.03741
G1 X85.88 Y89.454 E.01361
G1 X86.494 Y88.862 E.02674
M204 S1000
G1 X86.741 Y89.138 F10800
M204 S800
G1 F1200
G1 X87.166 Y88.908 E.01515
G1 X87.928 Y88.699 E.02477
G1 X103.075 Y88.703 E.47492
G1 X103.599 Y88.814 E.01679
G1 X104.127 Y89.054 E.01819
G1 X104.734 Y89.575 E.02508
G1 X105.139 Y90.206 E.02351
G1 X105.351 Y90.978 E.0251
G1 X105.351 Y119.024 E.87936
G1 X105.044 Y120 E.03208
G1 X104.843 Y120.29 E.01106
G1 X104.259 Y120.862 E.02563
G1 X103.834 Y121.092 E.01515
G1 X103.072 Y121.301 E.02477
G1 X87.926 Y121.301 E.47489
G1 X86.95 Y120.994 E.03208
G1 X86.66 Y120.793 E.01106
G1 X86.088 Y120.209 E.02563
G1 X85.858 Y119.784 E.01515
G1 X85.649 Y119.022 E.02477
G1 X85.649 Y90.976 E.87936
G1 X85.956 Y90 E.03208
G1 X86.157 Y89.71 E.01106
G1 X86.698 Y89.18 E.02375
M204 S1000
G1 X86.949 Y89.454 F10800
M204 S800
G1 F1200
G1 X87.291 Y89.264 E.01227
G1 X87.955 Y89.076 E.02164
G1 X103.053 Y89.08 E.47339
G1 X103.497 Y89.177 E.01425
G1 X103.943 Y89.384 E.01542
G1 X104.466 Y89.841 E.02178
G1 X104.785 Y90.336 E.01846
G1 X104.974 Y91.005 E.0218
G1 X104.974 Y118.995 E.87761
G1 X104.717 Y119.811 E.02682
G1 X104.563 Y120.036 E.00855
G1 X104.051 Y120.546 E.02266
G1 X103.709 Y120.736 E.01227
G1 X103.045 Y120.924 E.02164
G1 X87.955 Y120.924 E.47314
G1 X87.139 Y120.667 E.02682
M73 Q1 S56
G1 X86.914 Y120.513 E.00855
G1 X86.404 Y120.001 E.02266
G1 X86.214 Y119.659 E.01227
G1 X86.026 Y118.995 E.02164
G1 X86.026 Y91.005 E.87761
G1 X86.283 Y90.189 E.02682
G1 X86.437 Y89.964 E.00855
G1 X86.906 Y89.497 E.02075
M204 S1000
G1 X87.16 Y89.768 F10800
M204 S800
G1 F1200
G1 X87.42 Y89.619 E.0094
G1 X87.983 Y89.453 E.0184
G1 X103.031 Y89.457 E.47182
G1 X103.391 Y89.54 E.01158
G1 X103.756 Y89.712 E.01265
G1 X104.196 Y90.104 E.01848
G1 X104.431 Y90.47 E.01364
G1 X104.597 Y91.033 E.0184
G1 X104.597 Y118.966 E.87582
G1 X104.388 Y119.625 E.02168
G1 X104.281 Y119.786 E.00606
G1 X103.84 Y120.232 E.01967
G1 X103.58 Y120.381 E.0094
G1 X103.017 Y120.547 E.0184
G1 X87.984 Y120.547 E.47135
G1 X87.325 Y120.338 E.02168
G1 X87.164 Y120.231 E.00606
G1 X86.718 Y119.79 E.01967
G1 X86.569 Y119.53 E.0094
G1 X86.403 Y118.967 E.0184
G1 X86.403 Y91.034 E.87582
G1 X86.612 Y90.375 E.02168
G1 X86.719 Y90.214 E.00606
G1 X87.117 Y89.81 E.01778
M204 S1000
G1 X87.375 Y90.078 F10800
M204 S800
G1 F1200
G1 X87.555 Y89.971 E.00657
G1 X88.012 Y89.83 E.015
G1 X103.009 Y89.834 E.47022
G1 X103.247 Y89.889 E.00766
G1 X103.568 Y90.041 E.01114
G1 X103.923 Y90.365 E.01507
G1 X104.079 Y90.607 E.00903
G1 X104.22 Y91.062 E.01494
G1 X104.22 Y118.937 E.874
G1 X104.057 Y119.443 E.01667
M73 P2 R56
M73 Q2 S56
G1 X103.996 Y119.539 E.00357
G1 X103.625 Y119.922 E.01672
G1 X103.445 Y120.029 E.00657
G1 X102.988 Y120.17 E.015
G1 X88.013 Y120.17 E.46953
G1 X87.507 Y120.007 E.01667
G1 X87.411 Y119.946 E.00357
G1 X87.028 Y119.575 E.01672
G1 X86.921 Y119.395 E.00657
G1 X86.78 Y118.938 E.015
G1 X86.78 Y91.063 E.874
G1 X86.943 Y90.557 E.01667
G1 X87.004 Y90.461 E.00357
G1 X87.333 Y90.121 E.01483
M204 S1000
G1 X87.597 Y90.384 F10800
M204 S800
G1 F1200
G1 X87.698 Y90.321 E.00373
G1 X88.044 Y90.207 E.01142
G1 X102.987 Y90.211 E.46853
G1 X103.104 Y90.238 E.00376
G1 X103.378 Y90.368 E.00951
G1 X103.647 Y90.623 E.01162
G1 X103.73 Y90.75 E.00476
G1 X103.843 Y91.094 E.01135
G1 X103.843 Y118.906 E.87203
G1 X103.706 Y119.297 E.01299
G1 X103.403 Y119.616 E.01379
G1 X103.302 Y119.679 E.00373
G1 X102.956 Y119.793 E.01142
G1 X88.044 Y119.793 E.46756
G1 X87.653 Y119.656 E.01299
G1 X87.334 Y119.353 E.01379
G1 X87.271 Y119.252 E.00373
G1 X87.157 Y118.906 E.01142
G1 X87.157 Y91.094 E.87203
G1 X87.276 Y90.733 E.01192
G1 X87.556 Y90.427 E.013
M204 S1000
G1 X87.828 Y90.682 F10800
M204 S800
G1 F1200
G1 X88.079 Y90.584 E.00845
G1 X102.935 Y90.584 E.4658
G1 X103.185 Y90.694 E.00856
G1 X103.384 Y90.902 E.00903
G1 X103.466 Y91.129 E.00757
G1 X103.466 Y118.871 E.86983
G1 X103.389 Y119.084 E.0071
G1 X103.148 Y119.334 E.01089
G1 X102.921 Y119.416 E.00757
G1 X88.079 Y119.416 E.46536
G1 X87.866 Y119.339 E.0071
G1 X87.616 Y119.098 E.01089
G1 X87.534 Y118.871 E.00757
G1 X87.534 Y91.129 E.86983
G1 X87.611 Y90.916 E.0071
G1 X87.787 Y90.726 E.00812
M204 S1000
G1 X88.052 Y90.99 F10800
M204 S800
G1 F1200
G1 X88.121 Y90.961 E.00235
G1 X102.879 Y90.961 E.46273
G1 X102.948 Y90.99 E.00235
G1 X103.06 Y91.102 E.00497
G1 X103.089 Y91.171 E.00235
G1 X103.089 Y118.829 E.8672
G1 X103.06 Y118.898 E.00235
G1 X102.948 Y119.01 E.00497
G1 X102.879 Y119.039 E.00235
G1 X88.121 Y119.039 E.46273
G1 X88.052 Y119.01 E.00235
G1 X87.94 Y118.898 E.00497
G1 X87.911 Y118.829 E.00235
G1 X87.911 Y91.171 E.8672
G1 X87.94 Y91.102 E.00235
G1 X88.009 Y91.033 E.00306
M204 S1000
;WIPE_START
G1 F8640
G1 X88.121 Y90.961 E-.03074
G1 X91.453 Y90.961 E-.76926
;WIPE_END
G1 Z.6 F720
G1 X108.387 Y91.033 F10800
G1 Z.2 F720
G1 E.8 F2100
M204 S800
G1 F1200
G1 X108.387 Y90.806 E.00712
G1 X108.893 Y89.069 E.05673
G1 X109.514 Y88.151 E.03475
G1 X110.508 Y87.238 E.04232
G1 X111.47 Y86.751 E.03381
G1 X112.692 Y86.448 E.03948
G1 X128.225 Y86.444 E.48703
G1 X129.247 Y86.646 E.03266
G1 X130.188 Y87.049 E.0321
G1 X131.312 Y87.946 E.04509
G1 X132.205 Y89.284 E.05044
G1 X132.613 Y90.829 E.0501
G1 X132.613 Y119.194 E.88936
G1 X132.107 Y120.931 E.05673
G1 X131.486 Y121.849 E.03475
G1 X130.45 Y122.791 E.0439
G1 X129.53 Y123.249 E.03222
G1 X128.218 Y123.563 E.0423
G1 X112.756 Y123.563 E.4848
G1 X111.019 Y123.057 E.05673
G1 X110.101 Y122.436 E.03475
G1 X109.159 Y121.4 E.0439
G1 X108.701 Y120.48 E.03222
G1 X108.387 Y119.168 E.0423
G1 X108.387 Y91.093 E.88027
M204 S1000
G1 X108.764 Y91.093 F10800
M204 S800
G1 F1200
G1 X108.764 Y90.833 E.00815
G1 X109.222 Y89.254 E.05155
G1 X109.786 Y88.413 E.03175
G1 X110.744 Y87.534 E.04077
G1 X111.581 Y87.112 E.02939
G1 X112.761 Y86.819 E.03812
G1 X128.171 Y86.817 E.48317
G1 X129.117 Y87 E.03021
G1 X130.015 Y87.386 E.03065
G1 X131.053 Y88.221 E.04177
G1 X131.849 Y89.412 E.04492
G1 X132.236 Y90.854 E.04681
G1 X132.236 Y119.167 E.88773
G1 X131.778 Y120.746 E.05155
G1 X131.214 Y121.587 E.03175
G1 X130.256 Y122.466 E.04077
G1 X129.419 Y122.888 E.02939
G1 X128.195 Y123.186 E.0395
G1 X112.783 Y123.186 E.48323
G1 X111.204 Y122.728 E.05155
G1 X110.363 Y122.164 E.03175
G1 X109.484 Y121.206 E.04077
G1 X109.062 Y120.369 E.02939
G1 X108.764 Y119.145 E.0395
G1 X108.764 Y91.153 E.87767
M204 S1000
G1 X109.141 Y91.153 F10800
M204 S800
G1 F1200
G1 X109.141 Y90.861 E.00916
G1 X109.576 Y89.39 E.0481
G1 X110.059 Y88.674 E.02708
G1 X110.939 Y87.857 E.03765
M73 P2 R55
G1 X111.694 Y87.473 E.02656
G1 X112.829 Y87.191 E.03667
G1 X128.153 Y87.194 E.48047
G1 X129.024 Y87.366 E.02784
G1 X129.84 Y87.721 E.0279
G1 X130.793 Y88.495 E.03849
G1 X131.517 Y89.593 E.04124
G1 X131.859 Y90.878 E.04169
G1 X131.859 Y119.139 E.8861
G1 X131.424 Y120.61 E.0481
G1 X130.941 Y121.326 E.02708
G1 X130.061 Y122.143 E.03765
G1 X129.306 Y122.527 E.02656
G1 X128.171 Y122.809 E.03667
G1 X112.811 Y122.809 E.4816
G1 X111.34 Y122.374 E.0481
G1 X110.624 Y121.891 E.02708
G1 X109.807 Y121.011 E.03765
G1 X109.423 Y120.256 E.02656
G1 X109.141 Y119.121 E.03667
G1 X109.141 Y91.213 E.87504
M204 S1000
G1 X109.518 Y91.213 F10800
M204 S800
G1 F1200
G1 X109.518 Y90.889 E.01016
G1 X109.928 Y89.527 E.0446
G1 X110.332 Y88.935 E.02247
G1 X111.136 Y88.18 E.03458
G1 X111.808 Y87.833 E.02371
G1 X112.853 Y87.568 E.0338
G1 X128.133 Y87.571 E.47909
G1 X128.929 Y87.732 E.02546
M73 P3 R55
G1 X129.664 Y88.055 E.02517
G1 X130.53 Y88.767 E.03515
G1 X131.185 Y89.773 E.03764
M73 Q3 S56
G1 X131.482 Y90.902 E.0366
G1 X131.482 Y119.111 E.88447
G1 X131.072 Y120.473 E.0446
G1 X130.668 Y121.065 E.02247
G1 X129.864 Y121.82 E.03458
G1 X129.192 Y122.167 E.02371
G1 X128.148 Y122.432 E.03377
G1 X112.839 Y122.432 E.48
G1 X111.477 Y122.022 E.0446
G1 X110.885 Y121.618 E.02247
G1 X110.13 Y120.814 E.03458
G1 X109.783 Y120.142 E.02371
G1 X109.518 Y119.098 E.03377
G1 X109.518 Y91.273 E.87243
M204 S1000
G1 X109.895 Y91.273 F10800
M204 S800
G1 F1200
G1 X109.895 Y90.918 E.01113
G1 X110.279 Y89.666 E.04106
G1 X110.605 Y89.195 E.01796
G1 X111.335 Y88.501 E.03158
G1 X111.925 Y88.192 E.02088
G1 X112.877 Y87.945 E.03084
G1 X128.115 Y87.948 E.47778
G1 X128.796 Y88.085 E.02178
G1 X129.487 Y88.389 E.02367
G1 X130.267 Y89.038 E.03181
G1 X130.829 Y89.9 E.03226
G1 X131.105 Y90.928 E.03337
G1 X131.105 Y119.082 E.88275
G1 X130.721 Y120.334 E.04106
G1 X130.395 Y120.805 E.01796
G1 X129.665 Y121.499 E.03158
G1 X129.075 Y121.808 E.02088
G1 X128.123 Y122.055 E.03084
G1 X112.868 Y122.055 E.47831
G1 X111.616 Y121.671 E.04106
G1 X111.145 Y121.345 E.01796
G1 X110.451 Y120.615 E.03158
G1 X110.142 Y120.025 E.02088
G1 X109.895 Y119.073 E.03084
G1 X109.895 Y91.333 E.86977
M204 S1000
G1 X110.272 Y91.333 F10800
M204 S800
G1 F1200
G1 X110.272 Y90.947 E.0121
G1 X110.63 Y89.809 E.03741
G1 X110.88 Y89.454 E.01361
G1 X111.537 Y88.821 E.02861
G1 X112.044 Y88.55 E.01803
G1 X112.902 Y88.322 E.02784
G1 X128.095 Y88.326 E.47637
G1 X128.699 Y88.45 E.01933
G1 X129.308 Y88.722 E.02091
G1 X130.001 Y89.307 E.02844
G1 X130.495 Y90.078 E.02871
G1 X130.728 Y90.952 E.02836
G1 X130.728 Y119.053 E.88109
G1 X130.37 Y120.191 E.03741
G1 X130.12 Y120.546 E.01361
G1 X129.463 Y121.179 E.02861
G1 X128.956 Y121.45 E.01803
G1 X128.098 Y121.678 E.02784
G1 X112.897 Y121.678 E.47662
G1 X111.759 Y121.32 E.03741
G1 X111.404 Y121.07 E.01361
G1 X110.771 Y120.413 E.02861
G1 X110.5 Y119.906 E.01803
G1 X110.272 Y119.048 E.02784
G1 X110.272 Y91.393 E.8671
M204 S1000
G1 X110.649 Y91.393 F10800
M204 S800
G1 F1200
G1 X110.649 Y90.976 E.01307
