; generated by PrusaSlicer 2.6.0-alpha0 on 2023-04-03 at 02:40:53 UTC


;
;
; 

; external perimeters extrusion width = 0.45mm
; perimeters extrusion width = 0.45mm
; infill extrusion width = 0.45mm
; solid infill extrusion width = 0.45mm
; top infill extrusion width = 0.40mm
; first layer extrusion width = 0.42mm

M73 P0 R31
M73 Q0 S32
M201 X1000 Y1000 Z200 E5000 ; sets maximum accelerations, mm/sec^2
M203 X200 Y200 Z12 E120 ; sets maximum feedrates, mm / sec
M204 P1250 R1250 T1250 ; sets acceleration (P, T) and retract acceleration (R), mm/sec^2
M205 X8.00 Y8.00 Z0.40 E4.50 ; sets the jerk limits, mm/sec
M205 S0 T0 ; sets the minimum extruding and travel feed rate, mm/sec
M107
;TYPE:Custom
M862.3 P "MK3" ; printer model check
M862.1 P0.4 ; nozzle diameter check
M115 U3.11.0 ; tell printer latest fw version
G90 ; use absolute coordinates
M83 ; extruder relative mode
M104 S215 ; set extruder temp
M140 S60 ; set bed temp
M190 S60 ; wait for bed temp
M109 S215 ; wait for extruder temp
G28 W ; home all without mesh bed level
G80 ; mesh bed leveling

G1 Z0.2 F720
G1 Y-3 F1000 ; go outside print area
G92 E0
G1 X60 E9 F1000 ; intro line
G1 X100 E12.5 F1000 ; intro line

G92 E0
M221 S95

; Don't change E values below. Excessive value can damage the printer.
M907 E430 ; set extruder motor current
G21 ; set units to millimeters
G90 ; use absolute coordinates
M83 ; use relative distances for extrusion
M900 K0.05 ; Filament gcode LA 1.5
M900 K30 ; Filament gcode LA 1.0
M107
;LAYER_CHANGE
;Z:0.2
;HEIGHT:0.2
;BEFORE_LAYER_CHANGE
G92 E0.0
;0.2


G1 E-.8 F2100
G1 Z.4 F720
;AFTER_LAYER_CHANGE
;0.2
G1 X90.919 Y88.457 F10800
G1 Z.2 F720
G1 E.8 F2100
M204 S800
;TYPE:Skirt/Brim
;WIDTH:0.42
G1 F1200
G1 X93.907 Y85.469 E.13249
G1 X95.588 Y84.773 E.05705
G1 X154.412 Y84.773 E1.84439
G1 X156.093 Y85.469 E.05705
M73 Q0 S31
G1 X159.081 Y88.457 E.13249
G1 X159.777 Y90.138 E.05705
G1 X159.777 Y119.862 E.93198
G1 X159.081 Y121.543 E.05705
G1 X156.093 Y124.531 E.13249
G1 X154.412 Y125.227 E.05705
G1 X95.588 Y125.227 E1.84439
G1 X93.907 Y124.531 E.05705
G1 X90.919 Y121.543 E.13249
G1 X90.223 Y119.862 E.05705
G1 X90.223 Y90.138 E.93198
G1 X90.896 Y88.512 E.05518
M204 S1000
;WIPE_START
G1 F8640
G1 X93.333 Y86.049 E-.8
;WIPE_END
G1 Z.6 F720
G1 X93.578 Y89.788 F10800
G1 Z.2 F720
G1 E.8 F2100
M204 S800
G1 F1200
G1 X93.673 Y89.589 E.00691
G1 X94.545 Y88.603 E.04127
G1 X95.601 Y87.905 E.03969
G1 X97.104 Y87.46 E.04915
G1 X105.781 Y87.449 E.27206
G1 X106.98 Y87.725 E.03858
G1 X108.036 Y88.275 E.03733
G1 X109.076 Y89.249 E.04468
G1 X109.721 Y90.315 E.03907
G1 X110.065 Y91.48 E.03809
G1 X110.104 Y97.437 E.18678
G1 X141.887 Y97.437 E.99653
M73 P1 R31
M73 Q1 S31
G1 X141.905 Y91.689 E.18023
G1 X142.272 Y90.337 E.04393
G1 X142.913 Y89.26 E.0393
G1 X143.7 Y88.478 E.03479
G1 X144.45 Y87.976 E.0283
G1 X146.196 Y87.445 E.05722
G1 X152.809 Y87.445 E.20735
G1 X154.667 Y88.035 E.06112
G1 X155.379 Y88.546 E.02748
G1 X156.187 Y89.389 E.03661
G1 X156.778 Y90.461 E.03838
G1 X157.113 Y91.833 E.04428
G1 X157.113 Y118.188 E.82634
G1 X156.695 Y119.736 E.05027
G1 X156.22 Y120.563 E.0299
G1 X155.311 Y121.521 E.04141
G1 X154.404 Y122.095 E.03365
G1 X152.726 Y122.563 E.05462
G1 X146.261 Y122.563 E.20271
G1 X144.549 Y122.072 E.05584
G1 X143.705 Y121.528 E.03148
G1 X142.915 Y120.74 E.03499
G1 X142.314 Y119.761 E.03602
G1 X141.923 Y118.44 E.0432
G1 X141.889 Y112.563 E.18427
G1 X110.108 Y112.563 E.99647
G1 X110.074 Y118.455 E.18474
G1 X109.694 Y119.745 E.04217
G1 X109.056 Y120.773 E.03794
G1 X108.242 Y121.57 E.03572
G1 X107.484 Y122.058 E.02827
G1 X105.791 Y122.556 E.05533
G1 X97.213 Y122.557 E.26896
G1 X95.714 Y122.145 E.04874
G1 X94.887 Y121.67 E.0299
G1 X93.929 Y120.761 E.04141
G1 X93.355 Y119.854 E.03365
G1 X92.887 Y118.176 E.05462
G1 X92.887 Y91.931 E.82289
G1 X93.093 Y90.807 E.03583
G1 X93.552 Y89.842 E.03351
M204 S1000
G1 X93.888 Y89.999 F10800
M204 S800
G1 F1200
G1 X93.973 Y89.818 E.00627
G1 X94.81 Y88.872 E.0396
G1 X95.784 Y88.236 E.03647
G1 X97.132 Y87.837 E.04408
G1 X105.759 Y87.827 E.27049
G1 X106.87 Y88.087 E.03578
G1 X107.838 Y88.596 E.03429
G1 X108.766 Y89.466 E.03988
G1 X109.385 Y90.489 E.03749
G1 X109.695 Y91.559 E.03493
G1 X109.729 Y97.814 E.19612
G1 X142.264 Y97.814 E1.02011
G1 X142.276 Y91.762 E.18976
G1 X142.61 Y90.507 E.04072
G1 X143.225 Y89.474 E.03769
G1 X143.952 Y88.759 E.03197
G1 X144.589 Y88.328 E.02411
G1 X146.225 Y87.822 E.05369
G1 X152.779 Y87.822 E.2055
G1 X154.522 Y88.384 E.05742
G1 X155.12 Y88.82 E.0232
G1 X155.869 Y89.593 E.03375
G1 X156.435 Y90.621 E.03679
G1 X156.736 Y91.855 E.03983
G1 X156.736 Y118.162 E.82484
G1 X156.338 Y119.612 E.04715
G1 X155.906 Y120.353 E.02689
G1 X155.055 Y121.242 E.03859
G1 X154.228 Y121.76 E.0306
G1 X152.7 Y122.186 E.04974
G1 X146.288 Y122.186 E.20104
G1 X144.683 Y121.718 E.05242
G1 X143.929 Y121.223 E.02828
G1 X143.225 Y120.523 E.03113
G1 X142.649 Y119.585 E.03451
G1 X142.293 Y118.361 E.03997
G1 X142.265 Y112.186 E.19361
G1 X109.733 Y112.186 E1.02002
G1 X109.697 Y118.426 E.19565
G1 X109.36 Y119.567 E.0373
G1 X108.748 Y120.555 E.03644
G1 X108.02 Y121.265 E.03188
G1 X107.35 Y121.704 E.02512
G1 X105.711 Y122.186 E.05357
G1 X97.288 Y122.186 E.2641
G1 X95.838 Y121.788 E.04715
M73 P2 R31
M73 Q2 S31
G1 X95.097 Y121.356 E.02689
G1 X94.208 Y120.505 E.03859
G1 X93.69 Y119.678 E.0306
G1 X93.264 Y118.15 E.04974
G1 X93.264 Y91.947 E.82158
G1 X93.445 Y90.944 E.03196
G1 X93.863 Y90.054 E.03083
M204 S1000
G1 X94.202 Y90.215 F10800
M204 S800
G1 F1200
G1 X94.302 Y90.004 E.00732
G1 X95.039 Y89.173 E.03483
G1 X95.918 Y88.59 E.03307
G1 X97.213 Y88.206 E.04235
G1 X105.696 Y88.199 E.26598
G1 X106.718 Y88.433 E.03287
G1 X107.601 Y88.891 E.03119
G1 X108.459 Y89.686 E.03668
G1 X109.031 Y90.62 E.03434
G1 X109.318 Y91.589 E.03169
G1 X109.354 Y98.191 E.207
G1 X142.64 Y98.191 E1.04366
G1 X142.646 Y91.833 E.19935
G1 X142.948 Y90.677 E.03746
G1 X143.536 Y89.689 E.03605
G1 X144.18 Y89.06 E.02823
G1 X144.73 Y88.679 E.02098
G1 X146.254 Y88.199 E.0501
G1 X152.75 Y88.2 E.20368
G1 X154.325 Y88.707 E.05188
G1 X154.862 Y89.096 E.02079
G1 X155.553 Y89.799 E.03091
G1 X156.076 Y90.737 E.03367
G1 X156.359 Y91.879 E.03689
G1 X156.359 Y118.136 E.82327
G1 X155.982 Y119.485 E.04392
G1 X155.593 Y120.141 E.02391
G1 X154.8 Y120.963 E.03581
G1 X154.053 Y121.426 E.02756
G1 X152.674 Y121.809 E.04487
G1 X146.315 Y121.809 E.19938
G1 X144.865 Y121.387 E.04735
G1 X144.179 Y120.941 E.02566
G1 X143.532 Y120.304 E.02847
G1 X143.004 Y119.455 E.03135
G1 X142.662 Y118.281 E.03834
G1 X142.641 Y111.809 E.20293
G1 X109.358 Y111.809 E1.04357
G1 X109.328 Y118.345 E.20493
G1 X109.006 Y119.435 E.03564
G1 X108.441 Y120.334 E.03329
G1 X107.772 Y120.981 E.02918
G1 X107.168 Y121.373 E.02258
G1 X105.684 Y121.809 E.0485
G1 X97.314 Y121.809 E.26244
G1 X95.965 Y121.432 E.04392
G1 X95.309 Y121.043 E.02391
G1 X94.487 Y120.25 E.03581
G1 X94.024 Y119.503 E.02756
G1 X93.641 Y118.124 E.04487
G1 X93.641 Y91.965 E.8202
G1 X93.812 Y91.037 E.02959
G1 X94.176 Y90.269 E.02665
M204 S1000
G1 X94.515 Y90.432 F10800
M204 S800
G1 F1200
G1 X94.63 Y90.192 E.00834
G1 X95.27 Y89.471 E.03023
G1 X96.054 Y88.943 E.02964
G1 X97.294 Y88.575 E.04056
G1 X105.635 Y88.571 E.26153
G1 X106.569 Y88.78 E.03001
G1 X107.364 Y89.186 E.02799
G1 X108.183 Y89.945 E.03501
G1 X108.678 Y90.754 E.02974
G1 X108.941 Y91.619 E.02835
G1 X108.979 Y98.568 E.21788
G1 X143.018 Y98.568 E1.06727
M73 P2 R30
G1 X143.018 Y91.902 E.20901
G1 X143.286 Y90.846 E.03416
G1 X143.847 Y89.903 E.0344
G1 X144.411 Y89.358 E.02459
G1 X144.875 Y89.028 E.01785
G1 X146.284 Y88.576 E.0464
G1 X152.72 Y88.577 E.2018
G1 X154.129 Y89.031 E.04641
G1 X154.607 Y89.374 E.01845
G1 X155.238 Y90.008 E.02805
G1 X155.717 Y90.855 E.03051
G1 X155.982 Y91.902 E.03386
G1 X155.982 Y118.109 E.8217
G1 X155.627 Y119.357 E.04068
G1 X155.283 Y119.926 E.02085
G1 X154.547 Y120.683 E.0331
G1 X153.879 Y121.09 E.02453
G1 X152.649 Y121.432 E.04003
G1 X146.341 Y121.432 E.19778
G1 X145.046 Y121.055 E.04229
G1 X144.428 Y120.657 E.02305
G1 X143.838 Y120.083 E.02581
G1 X143.358 Y119.323 E.02818
G1 X143.032 Y118.201 E.03663
G1 X143.018 Y111.432 E.21224
M73 P3 R30
G1 X108.982 Y111.432 E1.06717
M73 Q3 S31
G1 X108.959 Y118.264 E.21421
G1 X108.652 Y119.302 E.03394
G1 X108.136 Y120.112 E.03011
G1 X107.525 Y120.695 E.02648
G1 X106.987 Y121.041 E.02006
G1 X105.657 Y121.432 E.04347
G1 X97.341 Y121.432 E.26074
G1 X96.093 Y121.077 E.04068
G1 X95.524 Y120.733 E.02085
G1 X94.767 Y119.997 E.0331
G1 X94.36 Y119.329 E.02453
G1 X94.018 Y118.099 E.04003
G1 X94.018 Y91.982 E.81888
G1 X94.177 Y91.132 E.02711
G1 X94.489 Y90.486 E.02249
M204 S1000
G1 X94.828 Y90.65 F10800
M204 S800
G1 F1200
G1 X94.958 Y90.38 E.0094
G1 X95.534 Y89.742 E.02695
G1 X96.239 Y89.272 E.02657
G1 X97.321 Y88.953 E.03537
G1 X105.615 Y88.948 E.26005
G1 X106.422 Y89.128 E.02592
G1 X107.13 Y89.482 E.02482
G1 X107.877 Y90.166 E.03176
G1 X108.324 Y90.888 E.02663
G1 X108.573 Y91.702 E.02669
G1 X108.603 Y98.945 E.2271
G1 X143.395 Y98.945 E1.09088
G1 X143.395 Y91.927 E.22004
G1 X143.644 Y90.967 E.0311
G1 X144.127 Y90.157 E.02957
G1 X144.662 Y89.639 E.02335
G1 X145.067 Y89.354 E.01553
G1 X146.369 Y88.945 E.04279
G1 X152.69 Y88.954 E.19819
G1 X153.935 Y89.355 E.04101
G1 X154.351 Y89.651 E.01601
G1 X154.952 Y90.256 E.02674
G1 X155.358 Y90.974 E.02586
G1 X155.605 Y91.927 E.03087
G1 X155.605 Y118.082 E.82007
G1 X155.272 Y119.225 E.03733
G1 X154.974 Y119.709 E.01782
G1 X154.296 Y120.401 E.03038
G1 X153.708 Y120.753 E.02149
G1 X152.623 Y121.055 E.03531
G1 X146.369 Y121.055 E.19609
G1 X145.18 Y120.702 E.03889
G1 X144.676 Y120.373 E.01887
G1 X144.145 Y119.862 E.02311
G1 X143.692 Y119.145 E.02659
G1 X143.402 Y118.124 E.03328
G1 X143.395 Y111.055 E.22164
G1 X108.605 Y111.055 E1.09082
G1 X108.59 Y118.183 E.22349
M73 Q3 S30
G1 X108.298 Y119.169 E.03224
G1 X107.833 Y119.887 E.02682
G1 X107.28 Y120.408 E.02382
G1 X106.808 Y120.708 E.01754
G1 X105.629 Y121.055 E.03853
G1 X97.368 Y121.055 E.25902
G1 X96.225 Y120.722 E.03733
G1 X95.741 Y120.424 E.01782
G1 X95.049 Y119.746 E.03038
G1 X94.697 Y119.158 E.02149
G1 X94.395 Y118.073 E.03531
G1 X94.395 Y91.999 E.81753
G1 X94.528 Y91.273 E.02314
G1 X94.802 Y90.704 E.0198
M204 S1000
G1 X95.139 Y90.863 F10800
M204 S800
G1 F1200
G1 X95.258 Y90.61 E.00877
G1 X95.763 Y90.042 E.02383
G1 X96.424 Y89.602 E.0249
G1 X97.348 Y89.33 E.0302
G1 X105.594 Y89.326 E.25855
G1 X106.277 Y89.477 E.02193
G1 X106.898 Y89.781 E.02168
G1 X107.571 Y90.388 E.02842
G1 X107.99 Y91.064 E.02494
G1 X108.203 Y91.783 E.02351
G1 X108.227 Y99.322 E.23638
G1 X143.772 Y99.322 E1.11449
G1 X143.772 Y91.952 E.23108
G1 X144.001 Y91.09 E.02796
G1 X144.407 Y90.411 E.02481
G1 X144.913 Y89.921 E.02209
G1 X145.259 Y89.679 E.01324
G1 X146.397 Y89.322 E.0374
G1 X152.66 Y89.331 E.19637
G1 X153.741 Y89.68 E.03562
M73 P4 R30
G1 X154.096 Y89.929 E.0136
G1 X154.667 Y90.504 E.02541
G1 X155 Y91.095 E.02127
M73 Q4 S30
G1 X155.228 Y91.952 E.02781
G1 X155.228 Y118.054 E.81841
G1 X154.919 Y119.091 E.03393
G1 X154.667 Y119.489 E.01477
G1 X154.046 Y120.117 E.02769
G1 X153.539 Y120.415 E.01844
G1 X152.597 Y120.678 E.03067
G1 X146.398 Y120.678 E.19437
G1 X145.318 Y120.35 E.03539
G1 X144.924 Y120.088 E.01484
G1 X144.451 Y119.64 E.02043
G1 X144.026 Y118.968 E.02493
G1 X143.772 Y118.049 E.02989
G1 X143.772 Y110.678 E.23111
G1 X108.228 Y110.678 E1.11446
G1 X108.22 Y118.102 E.23277
G1 X107.945 Y119.034 E.03047
G1 X107.532 Y119.659 E.02349
G1 X107.037 Y120.119 E.02119
G1 X106.629 Y120.375 E.0151
G1 X105.602 Y120.678 E.03357
G1 X97.396 Y120.678 E.25729
G1 X96.359 Y120.369 E.03393
G1 X95.961 Y120.117 E.01477
G1 X95.333 Y119.496 E.02769
G1 X95.035 Y118.989 E.01844
G1 X94.772 Y118.047 E.03067
G1 X94.772 Y92.015 E.81622
G1 X94.88 Y91.41 E.01927
G1 X95.113 Y90.917 E.0171
M204 S1000
G1 X95.451 Y91.073 F10800
M204 S800
G1 F1200
G1 X95.559 Y90.839 E.00808
G1 X96.028 Y90.312 E.02212
G1 X96.607 Y89.933 E.0217
G1 X97.375 Y89.707 E.0251
G1 X105.574 Y89.703 E.25707
G1 X106.135 Y89.826 E.01801
G1 X106.669 Y90.081 E.01855
G1 X107.267 Y90.613 E.0251
G1 X107.636 Y91.197 E.02166
G1 X107.834 Y91.864 E.02182
G1 X107.85 Y99.699 E.24566
G1 X144.149 Y99.699 E1.13813
G1 X144.149 Y91.978 E.24209
G1 X144.358 Y91.215 E.0248
G1 X144.687 Y90.665 E.02009
G1 X145.164 Y90.203 E.02082
G1 X145.45 Y90.006 E.01089
G1 X146.426 Y89.699 E.03208
G1 X152.63 Y89.708 E.19452
G1 X153.55 Y90.005 E.03031
G1 X153.841 Y90.208 E.01112
G1 X154.382 Y90.751 E.02403
G1 X154.643 Y91.217 E.01675
G1 X154.851 Y91.978 E.02474
G1 X154.851 Y118.025 E.81669
G1 X154.567 Y118.954 E.03046
G1 X154.363 Y119.265 E.01166
G1 X153.798 Y119.832 E.0251
G1 X153.372 Y120.077 E.01541
G1 X152.571 Y120.301 E.02608
G1 X146.426 Y120.301 E.19267
G1 X145.502 Y120.02 E.03028
G1 X145.17 Y119.802 E.01245
G1 X144.727 Y119.382 E.01914
G1 X144.381 Y118.838 E.02021
G1 X144.149 Y118.022 E.0266
G1 X144.149 Y110.301 E.24209
G1 X107.851 Y110.301 E1.1381
G1 X107.851 Y118.021 E.24206
G1 X107.592 Y118.898 E.02867
G1 X107.233 Y119.428 E.02007
G1 X106.796 Y119.828 E.01858
G1 X106.453 Y120.041 E.01266
G1 X105.575 Y120.301 E.02871
G1 X97.425 Y120.301 E.25554
G1 X96.496 Y120.017 E.03046
G1 X96.185 Y119.813 E.01166
G1 X95.618 Y119.248 E.0251
G1 X95.373 Y118.822 E.01541
G1 X95.149 Y118.021 E.02608
G1 X95.149 Y92.031 E.8149
G1 X95.233 Y91.545 E.01546
G1 X95.426 Y91.128 E.01441
M204 S1000
G1 X95.765 Y91.28 F10800
M204 S800
G1 F1200
G1 X95.861 Y91.067 E.00733
G1 X96.292 Y90.583 E.02032
G1 X96.787 Y90.265 E.01845
G1 X97.403 Y90.084 E.02013
G1 X105.554 Y90.08 E.25557
G1 X105.997 Y90.177 E.01422
G1 X106.443 Y90.384 E.01542
G1 X106.966 Y90.841 E.02178
G1 X107.284 Y91.335 E.01842
G1 X107.457 Y91.894 E.01835
G1 X107.474 Y100.076 E.25654
G1 X144.526 Y100.076 E1.16174
G1 X144.526 Y92.005 E.25306
M73 P5 R30
M73 Q5 S30
G1 X144.714 Y91.342 E.02161
G1 X144.967 Y90.918 E.01548
G1 X145.414 Y90.486 E.01949
G1 X145.639 Y90.333 E.00853
G1 X146.455 Y90.076 E.02682
G1 X152.545 Y90.076 E.19095
G1 X153.361 Y90.333 E.02682
G1 X153.586 Y90.487 E.00855
G1 X154.096 Y90.999 E.02266
G1 X154.286 Y91.341 E.01227
G1 X154.474 Y92.005 E.02164
G1 X154.474 Y117.995 E.8149
G1 X154.217 Y118.811 E.02682
G1 X154.063 Y119.036 E.00855
G1 X153.551 Y119.546 E.02266
G1 X153.209 Y119.736 E.01227
G1 X152.545 Y119.924 E.02164
G1 X146.454 Y119.924 E.19098
G1 X145.684 Y119.689 E.02524
G1 X145.416 Y119.516 E.01
G1 X145.002 Y119.124 E.01788
G1 X144.734 Y118.705 E.01559
G1 X144.526 Y117.994 E.02323
G1 X144.526 Y109.924 E.25303
G1 X107.474 Y109.924 E1.16174
G1 X107.474 Y117.994 E.25303
G1 X107.262 Y118.713 E.0235
G1 X106.959 Y119.167 E.01711
G1 X106.577 Y119.521 E.01633
G1 X106.316 Y119.689 E.00973
G1 X105.546 Y119.924 E.02524
G1 X97.455 Y119.924 E.25369
G1 X96.639 Y119.667 E.02682
G1 X96.414 Y119.513 E.00855
G1 X95.904 Y119.001 E.02266
G1 X95.714 Y118.659 E.01227
G1 X95.526 Y117.995 E.02164
G1 X95.526 Y92.046 E.81361
G1 X95.587 Y91.675 E.01179
G1 X95.741 Y91.335 E.0117
M204 S1000
G1 X96.081 Y91.491 F10800
M204 S800
G1 F1200
G1 X96.19 Y91.253 E.00821
G1 X96.553 Y90.855 E.01689
G1 X96.92 Y90.619 E.01368
G1 X97.483 Y90.453 E.0184
G1 X105.531 Y90.457 E.25234
G1 X105.891 Y90.54 E.01158
G1 X106.256 Y90.712 E.01265
G1 X106.696 Y91.104 E.01848
G1 X106.932 Y91.471 E.01368
G1 X107.088 Y91.978 E.01663
G1 X107.097 Y100.453 E.26573
G1 X144.903 Y100.453 E1.18538
G1 X144.903 Y92.033 E.264
G1 X145.068 Y91.472 E.01833
G1 X145.247 Y91.172 E.01095
G1 X145.663 Y90.77 E.01814
G1 X145.825 Y90.662 E.0061
G1 X146.484 Y90.453 E.02168
G1 X152.516 Y90.453 E.18913
G1 X153.175 Y90.662 E.02168
G1 X153.336 Y90.769 E.00606
G1 X153.782 Y91.21 E.01967
G1 X153.931 Y91.47 E.0094
G1 X154.097 Y92.033 E.0184
G1 X154.097 Y117.966 E.81311
G1 X153.888 Y118.625 E.02168
G1 X153.781 Y118.786 E.00606
G1 X153.34 Y119.232 E.01967
G1 X153.08 Y119.381 E.0094
G1 X152.517 Y119.547 E.0184
G1 X146.484 Y119.547 E.18916
G1 X145.825 Y119.338 E.02168
G1 X145.665 Y119.232 E.00602
G1 X145.28 Y118.867 E.01663
G1 X145.068 Y118.528 E.01254
G1 X144.903 Y117.967 E.01833
G1 X144.903 Y109.547 E.264
G1 X107.097 Y109.547 E1.18538
G1 X107.097 Y117.967 E.264
M73 P5 R29
G1 X106.931 Y118.531 E.01843
G1 X106.686 Y118.907 E.01407
G1 X106.332 Y119.235 E.01513
G1 X106.175 Y119.338 E.00589
