; generated by PrusaSlicer 2.6.0-alpha0 on 2023-04-03 at 02:45:51 UTC


;
;
; 

; external perimeters extrusion width = 0.45mm
; perimeters extrusion width = 0.45mm
; infill extrusion width = 0.45mm
; solid infill extrusion width = 0.45mm
; top infill extrusion width = 0.40mm
; first layer extrusion width = 0.42mm

M73 P0 R28
M73 Q0 S28
M201 X1000 Y1000 Z200 E5000 ; sets maximum accelerations, mm/sec^2
M203 X200 Y200 Z12 E120 ; sets maximum feedrates, mm / sec
M204 P1250 R1250 T1250 ; sets acceleration (P, T) and retract acceleration (R), mm/sec^2
M205 X8.00 Y8.00 Z0.40 E4.50 ; sets the jerk limits, mm/sec
M205 S0 T0 ; sets the minimum extruding and travel feed rate, mm/sec
M107
;TYPE:Custom
M862.3 P "MK3" ; printer model check
M862.1 P0.4 ; nozzle diameter check
M115 U3.11.0 ; tell printer latest fw version
G90 ; use absolute coordinates
M83 ; extruder relative mode
M104 S215 ; set extruder temp
M140 S60 ; set bed temp
M190 S60 ; wait for bed temp
M109 S215 ; wait for extruder temp
G28 W ; home all without mesh bed level
G80 ; mesh bed leveling

G1 Z0.2 F720
G1 Y-3 F1000 ; go outside print area
G92 E0
G1 X60 E9 F1000 ; intro line
G1 X100 E12.5 F1000 ; intro line

G92 E0
M221 S95

; Don't change E values below. Excessive value can damage the printer.
M907 E430 ; set extruder motor current
G21 ; set units to millimeters
G90 ; use absolute coordinates
M83 ; use relative distances for extrusion
M900 K0.05 ; Filament gcode LA 1.5
M900 K30 ; Filament gcode LA 1.0
M107
;LAYER_CHANGE
;Z:0.2
;HEIGHT:0.2
;BEFORE_LAYER_CHANGE
G92 E0.0
;0.2


G1 E-.8 F2100
G1 Z.4 F720
;AFTER_LAYER_CHANGE
;0.2
G1 X114.898 Y22.188 F10800
G1 Z.2 F720
G1 E.8 F2100
M204 S800
;TYPE:Skirt/Brim
;WIDTH:0.42
G1 F1200
G1 X115.594 Y20.507 E.05705
G1 X118.582 Y17.519 E.13249
G1 X120.263 Y16.823 E.05705
G1 X129.737 Y16.823 E.29705
G1 X131.418 Y17.519 E.05705
G1 X134.406 Y20.507 E.13249
G1 X135.102 Y22.188 E.05705
G1 X135.102 Y187.812 E5.19302
G1 X134.406 Y189.493 E.05705
M73 P0 R27
G1 X131.418 Y192.481 E.13249
G1 X129.737 Y193.177 E.05705
G1 X120.263 Y193.177 E.29705
G1 X118.582 Y192.481 E.05705
M73 P1 R27
M73 Q1 S28
G1 X115.594 Y189.493 E.13249
G1 X114.898 Y187.812 E.05705
G1 X114.898 Y22.248 E5.19114
M204 S1000
;WIPE_START
G1 F8640
G1 X115.594 Y20.507 E-.43293
G1 X116.718 Y19.383 E-.36707
;WIPE_END
G1 Z.6 F720
G1 X117.791 Y23.007 F10800
G1 Z.2 F720
G1 E.8 F2100
M204 S800
G1 F1200
G1 X117.966 Y22.341 E.02159
G1 X118.8 Y21.06 E.04793
G1 X119.394 Y20.511 E.02536
G1 X119.988 Y20.097 E.0227
G1 X121.236 Y19.604 E.04207
G1 X121.372 Y19.578 E.00434
G1 X128.473 Y19.544 E.22265
G1 X129.278 Y19.765 E.02617
G1 X130.046 Y20.118 E.0265
G1 X131.14 Y20.998 E.04402
G1 X132.03 Y22.334 E.05033
G1 X132.438 Y23.879 E.0501
G1 X132.438 Y186.12 E5.08695
G1 X132.082 Y187.549 E.04617
M73 P2 R27
M73 Q2 S27
G1 X131.294 Y188.828 E.0471
G1 X130.627 Y189.471 E.02905
G1 X129.923 Y189.949 E.02668
G1 X128.566 Y190.434 E.04518
G1 X121.975 Y190.515 E.20667
G1 X120.472 Y190.134 E.04862
G1 X119.134 Y189.275 E.04985
G1 X118.601 Y188.699 E.02461
G1 X118.173 Y188.096 E.02319
G1 X117.562 Y186.146 E.06407
G1 X117.562 Y23.881 E5.08771
G1 X117.776 Y23.065 E.02645
M204 S1000
G1 X118.133 Y23.158 F10800
M204 S800
G1 F1200
G1 X118.299 Y22.52 E.02067
G1 X119.074 Y21.32 E.04479
G1 X119.623 Y20.811 E.02347
G1 X120.148 Y20.439 E.02017
G1 X121.358 Y19.961 E.04079
G1 X128.398 Y19.915 E.22074
G1 X129.163 Y20.125 E.02487
G1 X129.866 Y20.45 E.02428
G1 X130.88 Y21.273 E.04095
G1 X131.674 Y22.462 E.04483
G1 X132.061 Y23.904 E.04681
G1 X132.061 Y186.096 E5.08542
G1 X131.724 Y187.427 E.04305
M73 P3 R27
M73 Q3 S27
G1 X130.987 Y188.607 E.04362
G1 X130.378 Y189.188 E.02639
G1 X129.771 Y189.604 E.02307
G1 X128.529 Y190.057 E.04145
G1 X121.996 Y190.138 E.20485
G1 X120.596 Y189.776 E.04534
G1 X119.395 Y189.001 E.04482
G1 X118.886 Y188.452 E.02347
G1 X118.498 Y187.902 E.0211
G1 X117.939 Y186.118 E.05862
G1 X117.939 Y23.905 E5.08607
G1 X118.118 Y23.216 E.02232
M204 S1000
G1 X118.475 Y23.309 F10800
M204 S800
G1 F1200
G1 X118.633 Y22.697 E.01982
G1 X119.348 Y21.58 E.04158
G1 X119.869 Y21.096 E.0223
G1 X120.346 Y20.761 E.01828
G1 X121.447 Y20.331 E.03706
G1 X128.324 Y20.286 E.21563
G1 X129.019 Y20.474 E.02257
G1 X129.685 Y20.782 E.02301
G1 X130.619 Y21.546 E.03783
G1 X131.342 Y22.643 E.04119
G1 X131.684 Y23.928 E.04169
G1 X131.684 Y186.072 E5.08391
G1 X131.367 Y187.303 E.03986
M73 P4 R26
M73 Q4 S27
G1 X130.682 Y188.385 E.04015
G1 X130.131 Y188.903 E.02371
G1 X129.616 Y189.259 E.01963
G1 X128.49 Y189.681 E.0377
G1 X122.016 Y189.76 E.203
G1 X120.773 Y189.442 E.04023
G1 X119.655 Y188.727 E.04161
G1 X119.171 Y188.205 E.02232
G1 X118.823 Y187.71 E.01897
G1 X118.316 Y186.089 E.05325
G1 X118.316 Y23.928 E5.08444
G1 X118.461 Y23.367 E.01817
M204 S1000
G1 X118.822 Y23.462 F10800
M204 S800
G1 F1200
G1 X118.99 Y22.823 E.02072
G1 X119.621 Y21.84 E.03662
G1 X120.116 Y21.382 E.02114
G1 X120.543 Y21.084 E.01633
G1 X121.55 Y20.696 E.03384
G1 X128.25 Y20.656 E.21008
G1 X128.905 Y20.833 E.02127
G1 X129.504 Y21.113 E.02073
G1 X130.356 Y21.817 E.03465
G1 X131.01 Y22.823 E.03762
G1 X131.307 Y23.952 E.0366
G1 X131.307 Y186.047 E5.08237
G1 X131.01 Y187.177 E.03663
M73 P5 R26
M73 Q5 S26
G1 X130.379 Y188.16 E.03662
G1 X129.884 Y188.618 E.02114
G1 X129.457 Y188.916 E.01633
G1 X128.451 Y189.304 E.03381
G1 X122.037 Y189.383 E.20112
G1 X120.898 Y189.085 E.03691
G1 X119.915 Y188.454 E.03662
G1 X119.457 Y187.959 E.02114
G1 X119.149 Y187.518 E.01687
G1 X118.693 Y186.06 E.0479
G1 X118.693 Y23.953 E5.08275
G1 X118.807 Y23.52 E.01404
M204 S1000
G1 X119.165 Y23.613 F10800
M204 S800
G1 F1200
G1 X119.324 Y22.999 E.01989
G1 X119.896 Y22.1 E.03341
G1 X120.362 Y21.668 E.01992
G1 X120.738 Y21.407 E.01435
G1 X121.651 Y21.06 E.03062
G1 X128.178 Y21.027 E.20465
G1 X128.76 Y21.182 E.01888
G1 X129.321 Y21.444 E.01941
G1 X130.092 Y22.088 E.0315
G1 X130.654 Y22.95 E.03226
G1 X130.93 Y23.978 E.03337
G1 X130.93 Y186.023 E5.08081
G1 X130.676 Y187.001 E.03168
M73 P6 R26
M73 Q6 S26
G1 X130.104 Y187.9 E.03341
G1 X129.638 Y188.332 E.01992
G1 X129.262 Y188.593 E.01435
G1 X128.349 Y188.94 E.03062
G1 X122.058 Y189.006 E.19726
G1 X121.075 Y188.751 E.03184
G1 X120.175 Y188.179 E.03344
G1 X119.743 Y187.713 E.01992
G1 X119.475 Y187.327 E.01473
G1 X119.07 Y186.032 E.04254
G1 X119.07 Y23.977 E5.08112
G1 X119.149 Y23.671 E.00991
M204 S1000
G1 X119.51 Y23.767 F10800
M204 S800
G1 F1200
G1 X119.681 Y23.125 E.02083
G1 X120.17 Y22.36 E.02847
G1 X120.608 Y21.954 E.01873
G1 X120.932 Y21.731 E.01233
G1 X121.752 Y21.425 E.02744
G1 X128.105 Y21.398 E.1992
G1 X128.646 Y21.542 E.01755
G1 X129.137 Y21.774 E.01703
G1 X129.826 Y22.357 E.0283
G1 X130.32 Y23.128 E.02871
G1 X130.553 Y24.002 E.02836
G1 X130.553 Y185.998 E5.07927
G1 X130.319 Y186.875 E.02846
M73 P7 R26
M73 Q7 S26
G1 X129.83 Y187.64 E.02847
G1 X129.392 Y188.046 E.01873
G1 X129.068 Y188.269 E.01233
G1 X128.249 Y188.575 E.02741
G1 X122.081 Y188.628 E.1934
G1 X121.201 Y188.394 E.02855
G1 X120.435 Y187.905 E.02849
G1 X120.029 Y187.467 E.01873
G1 X119.802 Y187.137 E.01256
G1 X119.447 Y186.003 E.03726
G1 X119.447 Y24.002 E5.07943
G1 X119.494 Y23.825 E.00574
M204 S1000
M73 P7 R25
G1 X119.853 Y23.924 F10800
M204 S800
G1 F1200
G1 X120.036 Y23.254 E.02178
G1 X120.443 Y22.621 E.0236
G1 X120.854 Y22.24 E.01757
G1 X121.124 Y22.056 E.01024
G1 X121.85 Y21.79 E.02424
G1 X128.034 Y21.769 E.1939
G1 X128.502 Y21.891 E.01516
G1 X128.953 Y22.104 E.01564
G1 X129.559 Y22.625 E.02506
G1 X129.964 Y23.256 E.02351
G1 X130.176 Y24.028 E.0251
G1 X130.176 Y185.972 E5.07764
G1 X129.964 Y186.746 E.02516
M73 P8 R25
M73 Q8 S26
G1 X129.557 Y187.379 E.0236
G1 X129.146 Y187.76 E.01757
G1 X128.876 Y187.944 E.01024
G1 X128.15 Y188.21 E.02424
G1 X122.105 Y188.251 E.18954
G1 X121.329 Y188.039 E.02522
G1 X120.696 Y187.632 E.0236
G1 X120.315 Y187.221 E.01757
G1 X120.129 Y186.948 E.01036
G1 X119.824 Y185.974 E.032
G1 X119.824 Y24.028 E5.0777
G1 X119.837 Y23.981 E.00153
M204 S1000
M73 Q8 S25
G1 X120.201 Y24.055 F10800
M204 S800
G1 F1200
G1 X120.391 Y23.385 E.02184
G1 X120.716 Y22.882 E.01878
G1 X121.099 Y22.527 E.01637
G1 X121.314 Y22.383 E.00811
G1 X121.946 Y22.156 E.02106
G1 X127.964 Y22.14 E.18869
G1 X128.358 Y22.24 E.01275
G1 X128.767 Y22.433 E.01418
G1 X129.291 Y22.891 E.02182
G1 X129.61 Y23.386 E.01846
G1 X129.799 Y24.055 E.0218
G1 X129.799 Y185.945 E5.07595
G1 X129.609 Y186.615 E.02184
M73 P9 R25
M73 Q9 S25
G1 X129.284 Y187.118 E.01878
G1 X128.901 Y187.473 E.01637
G1 X128.686 Y187.617 E.00811
G1 X128.054 Y187.844 E.02106
G1 X122.131 Y187.874 E.18571
G1 X121.46 Y187.684 E.02187
G1 X120.957 Y187.359 E.01878
G1 X120.602 Y186.976 E.01637
G1 X120.457 Y186.76 E.00816
G1 X120.201 Y185.945 E.02678
G1 X120.201 Y24.115 E5.07407
M204 S1000
G1 X120.578 Y24.115 F10800
M204 S800
G1 F1200
G1 X120.744 Y23.519 E.0194
G1 X120.989 Y23.143 E.01407
G1 X121.343 Y22.815 E.01513
G1 X121.501 Y22.711 E.00593
G1 X122.04 Y22.523 E.0179
G1 X127.898 Y22.512 E.18367
G1 X128.214 Y22.589 E.0102
M73 P10 R25
G1 X128.581 Y22.762 E.01272
G1 X129.021 Y23.154 E.01848
G1 X129.256 Y23.52 E.01364
G1 X129.422 Y24.083 E.0184
G1 X129.422 Y185.917 E5.07419
G1 X129.256 Y186.481 E.01843
M73 Q10 S25
G1 X129.011 Y186.857 E.01407
G1 X128.657 Y187.185 E.01513
G1 X128.499 Y187.289 E.00593
G1 X127.96 Y187.477 E.0179
G1 X122.158 Y187.497 E.18192
G1 X121.594 Y187.331 E.01843
G1 X121.218 Y187.086 E.01407
G1 X120.89 Y186.732 E.01513
G1 X120.787 Y186.575 E.00589
G1 X120.578 Y185.916 E.02168
G1 X120.578 Y24.175 E5.07128
M204 S1000
G1 X120.955 Y24.175 F10800
M204 S800
M73 P11 R25
G1 F1200
G1 X120.955 Y24.112 E.00198
G1 X121.096 Y23.657 E.01494
G1 X121.262 Y23.404 E.00949
G1 X121.587 Y23.104 E.01387
G1 X121.683 Y23.042 E.00358
G1 X122.131 Y22.89 E.01483
G1 X127.834 Y22.884 E.17881
G1 X128.072 Y22.939 E.00766
G1 X128.393 Y23.091 E.01114
G1 X128.748 Y23.415 E.01507
G1 X128.904 Y23.657 E.00903
G1 X129.045 Y24.112 E.01494
G1 X129.045 Y185.888 E5.07237
G1 X128.904 Y186.343 E.01494
M73 P11 R24
M73 Q11 S25
G1 X128.738 Y186.596 E.00949
G1 X128.413 Y186.896 E.01387
G1 X128.317 Y186.958 E.00358
G1 X127.869 Y187.11 E.01483
G1 X122.187 Y187.12 E.17816
G1 X121.732 Y186.979 E.01494
G1 X121.479 Y186.813 E.00949
G1 X121.179 Y186.488 E.01387
G1 X121.118 Y186.393 E.00354
G1 X120.955 Y185.887 E.01667
G1 X120.955 Y24.235 E5.06848
M204 S1000
G1 X121.332 Y24.235 F10800
M204 S800
M73 P12 R24
G1 F1200
G1 X121.332 Y24.144 E.00285
G1 X121.445 Y23.801 E.01132
G1 X121.535 Y23.666 E.00509
G1 X121.858 Y23.376 E.01361
G1 X122.219 Y23.257 E.01192
G1 X127.812 Y23.261 E.17536
G1 X127.929 Y23.288 E.00376
G1 X128.203 Y23.418 E.00951
G1 X128.472 Y23.673 E.01162
G1 X128.555 Y23.8 E.00476
G1 X128.668 Y24.144 E.01135
G1 X128.668 Y185.856 E5.07037
G1 X128.555 Y186.199 E.01132
M73 Q12 S24
G1 X128.465 Y186.334 E.00509
G1 X128.142 Y186.624 E.01361
G1 X127.781 Y186.743 E.01192
G1 X122.219 Y186.743 E.17439
G1 X121.876 Y186.63 E.01132
G1 X121.741 Y186.54 E.00509
G1 X121.451 Y186.217 E.01361
G1 X121.332 Y185.856 E.01192
G1 X121.332 Y24.295 E5.06563
M204 S1000
G1 X121.709 Y24.295 F10800
M204 S800
M73 P13 R24
G1 F1200
G1 X121.709 Y24.179 E.00364
G1 X121.807 Y23.928 E.00845
G1 X122.041 Y23.711 E.01001
G1 X122.254 Y23.634 E.0071
G1 X127.76 Y23.634 E.17264
G1 X128.01 Y23.744 E.00856
G1 X128.191 Y23.925 E.00803
G1 X128.291 Y24.179 E.00856
G1 X128.291 Y185.821 E5.06817
G1 X128.193 Y186.072 E.00845
M73 Q13 S24
G1 X127.959 Y186.289 E.01001
G1 X127.746 Y186.366 E.0071
G1 X122.254 Y186.366 E.1722
G1 X122.003 Y186.268 E.00845
G1 X121.786 Y186.034 E.01001
G1 X121.709 Y185.821 E.0071
G1 X121.709 Y24.355 E5.06265
M204 S1000
G1 X122.086 Y24.355 F10800
M204 S800
M73 P14 R24
G1 F1200
G1 X122.086 Y24.221 E.0042
G1 X122.115 Y24.152 E.00235
G1 X122.227 Y24.04 E.00497
G1 X122.296 Y24.011 E.00235
G1 X127.704 Y24.011 E.16956
G1 X127.773 Y24.04 E.00235
G1 X127.885 Y24.152 E.00497
G1 X127.914 Y24.221 E.00235
G1 X127.914 Y185.779 E5.06554
G1 X127.885 Y185.848 E.00235
M73 Q14 S24
G1 X127.773 Y185.96 E.00497
G1 X127.704 Y185.989 E.00235
G1 X122.296 Y185.989 E.16956
G1 X122.227 Y185.96 E.00235
G1 X122.115 Y185.848 E.00497
G1 X122.086 Y185.779 E.00235
G1 X122.086 Y24.415 E5.05945
M204 S1000
; printing object Cube057 id:0 copy 0
;WIPE_START
G1 F8640
M73 P15 R23
G1 X122.086 Y24.221 E-.0448
G1 X122.115 Y24.152 E-.01728
G1 X122.227 Y24.04 E-.03657
G1 X122.296 Y24.011 E-.01728
G1 X125.259 Y24.011 E-.68407
;WIPE_END
G1 Z.6 F720
G1 X127.415 Y185.49 F10800
G1 Z.2 F720
G1 E.8 F2100
M204 S800
;TYPE:External perimeter
G1 F1200
G1 X122.585 Y185.49 E.15144
G1 X122.585 Y24.51 E5.04741
G1 X127.415 Y24.51 E.15144
M73 Q15 S24
G1 X127.415 Y185.43 E5.04553
M204 S1000
G1 X127.067 Y185.293 F10800
M73 P16 R23
M73 Q15 S23
G1 X127.038 Y185.113
M204 S800
;TYPE:Perimeter
G1 F1200
G1 X122.962 Y185.113 E.1278
G1 X122.962 Y24.887 E5.02377
G1 X127.038 Y24.887 E.1278
M73 Q16 S23
G1 X127.038 Y185.053 E5.02189
M204 S1000
;WIPE_START
G1 F8640
M73 P17 R23
G1 X123.574 Y185.104 E-.8
;WIPE_END
G1 Z.6 F720
G1 X126.925 Y25.763 F10800
G1 Z.2 F720
M73 Q17 S23
G1 E.8 F2100
M204 S800
;TYPE:Solid infill
;WIDTH:0.420484
G1 F1200
G1 X126.331 Y25.17 E.02635
G1 X125.797 Y25.17 E.01676
G1 X126.755 Y26.128 E.04253
G1 X126.755 Y26.662 E.01676
G1 X125.263 Y25.17 E.06624
G1 X124.729 Y25.17 E.01676
G1 X126.755 Y27.196 E.08995
G1 X126.755 Y27.73 E.01676
G1 X124.195 Y25.17 E.11366
G1 X123.661 Y25.17 E.01676
G1 X126.755 Y28.264 E.13737
G1 X126.755 Y28.798 E.01676
G1 X123.245 Y25.287 E.15586
G1 X123.245 Y25.821 E.01676
G1 X126.755 Y29.331 E.15584
G1 X126.755 Y29.865 E.01676
G1 X123.245 Y26.355 E.15584
G1 X123.245 Y26.889 E.01676
G1 X126.755 Y30.399 E.15584
G1 X126.755 Y30.933 E.01676
G1 X123.245 Y27.423 E.15584
G1 X123.245 Y27.957 E.01676
G1 X126.755 Y31.467 E.15584
G1 X126.755 Y32.001 E.01676
G1 X123.245 Y28.491 E.15584
G1 X123.245 Y29.025 E.01676
G1 X126.755 Y32.535 E.15584
G1 X126.755 Y33.069 E.01676
G1 X123.245 Y29.559 E.15584
G1 X123.245 Y30.093 E.01676
G1 X126.755 Y33.603 E.15584
G1 X126.755 Y34.137 E.01676
G1 X123.245 Y30.627 E.15584
G1 X123.245 Y31.161 E.01676
G1 X126.755 Y34.671 E.15584
G1 X126.755 Y35.205 E.01676
G1 X123.245 Y31.695 E.15584
G1 X123.245 Y32.229 E.01676
G1 X126.755 Y35.739 E.15584
G1 X126.755 Y36.273 E.01676
G1 X123.245 Y32.763 E.15584
G1 X123.245 Y33.297 E.01676
G1 X126.755 Y36.807 E.15584
G1 X126.755 Y37.341 E.01676
G1 X123.245 Y33.831 E.15584
G1 X123.245 Y34.365 E.01676
G1 X126.755 Y37.875 E.15584
G1 X126.755 Y38.409 E.01676
G1 X123.245 Y34.898 E.15586
G1 X123.245 Y35.432 E.01676
G1 X126.755 Y38.943 E.15586
G1 X126.755 Y39.477 E.01676
G1 X123.245 Y35.966 E.15586
G1 X123.245 Y36.5 E.01676
G1 X126.755 Y40.011 E.15586
G1 X126.755 Y40.545 E.01676
G1 X123.245 Y37.034 E.15586
G1 X123.245 Y37.568 E.01676
G1 X126.755 Y41.079 E.15586
G1 X126.755 Y41.612 E.01673
G1 X123.245 Y38.102 E.15584
G1 X123.245 Y38.636 E.01676
G1 X126.755 Y42.146 E.15584
G1 X126.755 Y42.68 E.01676
G1 X123.245 Y39.17 E.15584
G1 X123.245 Y39.704 E.01676
G1 X126.755 Y43.214 E.15584
G1 X126.755 Y43.748 E.01676
G1 X123.245 Y40.238 E.15584
G1 X123.245 Y40.772 E.01676
G1 X126.755 Y44.282 E.15584
G1 X126.755 Y44.816 E.01676
G1 X123.245 Y41.306 E.15584
G1 X123.245 Y41.84 E.01676
G1 X126.755 Y45.35 E.15584
G1 X126.755 Y45.884 E.01676
G1 X123.245 Y42.374 E.15584
G1 X123.245 Y42.908 E.01676
G1 X126.755 Y46.418 E.15584
G1 X126.755 Y46.952 E.01676
G1 X123.245 Y43.442 E.15584
G1 X123.245 Y43.976 E.01676
G1 X126.755 Y47.486 E.15584
G1 X126.755 Y48.02 E.01676
G1 X123.245 Y44.51 E.15584
G1 X123.245 Y45.044 E.01676
G1 X126.755 Y48.554 E.15584
G1 X126.755 Y49.088 E.01676
G1 X123.245 Y45.578 E.15584
G1 X123.245 Y46.112 E.01676
G1 X126.755 Y49.622 E.15584
G1 X126.755 Y50.156 E.01676
G1 X123.245 Y46.646 E.15584
G1 X123.245 Y47.179 E.01673
G1 X126.755 Y50.69 E.15586
G1 X126.755 Y51.224 E.01676
G1 X123.245 Y47.713 E.15586
G1 X123.245 Y48.247 E.01676
G1 X126.755 Y51.758 E.15586
G1 X126.755 Y52.292 E.01676
G1 X123.245 Y48.781 E.15586
G1 X123.245 Y49.315 E.01676
G1 X126.755 Y52.826 E.15586
G1 X126.755 Y53.36 E.01676
G1 X123.245 Y49.849 E.15586
G1 X123.245 Y50.383 E.01676
M73 P18 R23
G1 X126.755 Y53.893 E.15584
G1 X126.755 Y54.427 E.01676
G1 X123.245 Y50.917 E.15584
